Sources/FrostedUI/Resources/Icons.xcassets/sparkles32.imageset/sparkles-32.svg

<svg
  width="32"
  height="32"
  viewBox="0 0 32 32"
  fill="none"
  xmlns="http://www.w3.org/2000/svg"
  data-fui-icon="true"
>
  <path
    d="M12.5 24C12.5 20.8945 8.10547 16.5 5 16.5 8.10547 16.5 12.5 12.661 12.5 9 12.5 12.661 16.339 16.5 20 16.5 16.339 16.5 12.5 20.8945 12.5 24zM21 13C21 11.7578 19.2422 10 18 10 19.2422 10 21 8.46441 21 7 21 8.46441 22.5356 10 24 10 22.5356 10 21 11.7578 21 13zM21 26C21 24.7578 19.2422 23 18 23 19.2422 23 21 21.4644 21 20 21 21.4644 22.5356 23 24 23 22.5356 23 21 24.7578 21 26z"
    stroke="currentColor"
    stroke-width="1.5"
    stroke-linecap="round"
    stroke-linejoin="round"
  />
</svg>

<svg xmlns="http://www.w3.org/2000/svg" width="32" height="32" fill="none" data-fui-icon="true" viewBox="0 0 32 32"><path stroke="currentColor" stroke-linecap="round" stroke-linejoin="round" stroke-width="1.5" d="M12.5 24c0-3.105-4.395-7.5-7.5-7.5 3.105 0 7.5-3.839 7.5-7.5 0 3.661 3.839 7.5 7.5 7.5-3.661 0-7.5 4.395-7.5 7.5M21 13c0-1.242-1.758-3-3-3 1.242 0 3-1.536 3-3 0 1.464 1.536 3 3 3-1.464 0-3 1.758-3 3m0 13c0-1.242-1.758-3-3-3 1.242 0 3-1.536 3-3 0 1.464 1.536 3 3 3-1.464 0-3 1.758-3 3"/></svg>
